public/Amazings.svg

<svg fill="none" height="120" viewBox="0 0 120 120" width="120" xmlns="http://www.w3.org/2000/svg"><g fill="#fff"><path d="m77.7524 14.9378c.0479.4313.422.7674.8765.7674h6.1935l.0961-.0051c.4418-.0468.7856-.4125.7856-.8561v-1.9978l-.0051-.0938c-.0479-.4315-.4221-.7673-.8766-.7673l-2.8405.0002-.0008-1.1241-.0052-.0939c-.0479-.4315-.422-.7673-.8768-.7673h-2.47l-.0961.0051c-.4418.0467-.7856.4121-.7856.8561l-.0002 3.9828z"/><path d="m110.254 34.586c-.047-.4313-.422-.7674-.876-.7674h-6.194l-.096.0051c-.441.0468-.785.4125-.785.8561v1.9978l.005.0938c.048.4315.422.7673.876.7673l2.841-.0002.001 1.1241.005.0939c.048.4315.422.7673.877.7673h2.47l.096-.005c.442-.0468.785-.4122.785-.8562l.001-3.9828z"/><path d="m97.2623 33.8399c.4398 0 .7639.286.8079.6972l.0051.0971v2.3829c0 .4296-.2926.7462-.7136.7892l-.0994.0051h-6.5042c-.4399 0-.7639-.2859-.808-.6973l-.0051-.097v-2.3829c0-.4296.2927-.7463.7137-.7893l.0994-.005z"/><path d="m59.4446 12.2931c-.0441-.4112-.3683-.6972-.8079-.6972h-2.8456l-.0994.005c-.4209.043-.7137.3598-.7137.7893v2.3829l.0051.0971c.0441.4113.3683.6972.808.6972h2.8456l.0993-.005c.4209-.0431.7137-.3596.7137-.7893v-2.3829z"/><path d="m15.1303 15.571c3.3717 0 5.597 2.1055 5.6883 5.3514l.0029.2087v4.7658c0 3.294-2.1551 5.4681-5.4776 5.5572l-.2136.0029h-7.31728c-.4392 0-.76376-.2863-.8079-.6973l-.00512-.097v-2.3829c0-.4294.29319-.7462.71378-.7893l.09924-.005h7.31728c1.0602 0 1.5799-.4631 1.6231-1.4507l.003-.1379v-4.7658c0-1.0356-.4737-1.5435-1.4849-1.5857l-.1412-.0029h-7.31728c-.4392 0-.76376-.2864-.8079-.6973l-.00512-.097v-2.3829c0-.4292.29319-.7462.71378-.7893l.09924-.005z"/><path clip-rule="evenodd" d="m31.3956 22.7671v4.7876h-1.6264c-1.3473 0-2.4396-1.0718-2.4396-2.3938v-13.565c0-.4407-.364-.798-.8131-.798h-2.4396c-.4491 0-.8132.3573-.8132.798v13.565c0 3.5255 2.9126 6.3835 6.5055 6.3835h17.4835c1.4749 0 2.8275-.5137 3.8822-1.3688l.7232 1.0251c.1519.2152.4017.3437.6686.3437h4.8596c1.8506 0 3.5207-.7582 4.7053-1.9753l1.1511 1.6316c.1519.2152.4017.3437.6686.3437h4.8596c1.6073 0 3.0784-.5719 4.2135-1.5197l.8297 1.176c.1519.2152.4018.3437.6686.3437h3.2215c1.6143 0 3.0912-.5769 4.2283-1.5321l.8384 1.1884c.1519.2152.4018.3437.6686.3437h.782c1.6949 0 3.2384-.636 4.3962-1.678l.6905 1.2584c.1418.2584.4168.4196.716.4196h5.6131c1.6039 0 3.0529-.6509 4.0876-1.6982l.9561 1.3545c.151.2152.401.3437.668.3437h4.86c3.593 0 6.505-2.858 6.505-6.3835v-4.7877c0-.4407-.364-.7979-.813-.7979h-2.439c-.45 0-.814.3572-.814.7979v4.7877c0 1.322-1.092 2.3938-2.439 2.3938h-5.115c.153-.5057.236-1.0413.236-1.5959v-5.5856c0-.4407-.364-.7979-.814-.7979h-2.4391c-.4491 0-.8132.3572-.8132.7979v5.5856c0 .8814-.7281 1.5959-1.6264 1.5959h-4.8791v-7.1815c0-.4407-.3641-.7979-.8132-.7979h-2.4707c-.4491 0-.8132.3572-.8132.7979v4.7877c0 1.322-1.0923 2.3938-2.4396 2.3938h-.4846c.3049-.7392.4728-1.5473.4728-2.3938v-4.7877c0-.4407-.3641-.7979-.8132-.7979h-2.4395c-.4491 0-.8132.3572-.8132.7979v4.7877c0 1.322-1.0922 2.3938-2.4396 2.3938h-2.9007c.305-.7392.4729-1.5473.4729-2.3938v-4.7877c0-.4407-.3641-.7979-.8132-.7979h-2.4395c-.4492 0-.8132.3572-.8132.7979v4.7877c0 1.322-1.0923 2.3938-2.4396 2.3938h-5.352c.305-.7392.4729-1.5473.4729-2.3938v-4.7877c0-.4407-.3641-.7979-.8132-.7979h-2.4395c-.4492 0-.8132.3572-.8132.7979v4.7877c0 1.322-1.0923 2.3938-2.4396 2.3938h-4.3817c.2247-.624.347-1.2954.347-1.9949 0-3.3051-2.7305-5.9845-6.0989-5.9845h-3.7164c-1.1249-1.908-3.2273-3.1918-5.6352-3.1918-3.5929 0-6.5055 2.858-6.5055 6.3836zm6.5055-2.3939c-1.3473 0-2.4396 1.0718-2.4396 2.3939v4.7876h4.8791v-4.7876c0-1.3221-1.0922-2.3939-2.4395-2.3939zm6.5055 7.1815v-3.9897h2.8461c1.1228 0 2.033.8931 2.033 1.9948 0 1.1018-.9102 1.9949-2.033 1.9949z" fill-rule="evenodd"/><path d="m98.7052 53.1463c.0486.4412.4287.7851.8905.7851h6.2933l.097-.0052c.449-.0479.798-.422.798-.8758v-2.0439l-.005-.096c-.048-.4414-.429-.785-.89-.785l-2.886.0002-.001-1.15-.006-.096c-.048-.4414-.428-.785-.89-.785h-2.5102l-.0975.0052c-.4489.0478-.7982.4217-.7982.8758l-.0002 4.0747z"/><path d="m28.8538 55.3387c-.0448-.4207-.374-.7134-.8209-.7134h-6.6087l-.1009.0052c-.4278.044-.7251.368-.7251.8074v2.4378l.0052.0994c.0447.4208.374.7132.8208.7132h6.6087l.101-.0051c.4277-.044.7251-.3679.7251-.8075v-2.4378z"/><path d="m56.2172 48.0947c.4467 0 .7761.2927.8209.7134l.0052.0992v2.4378c0 .4396-.2975.7635-.7252.8075l-.1009.0051h-2.8913c-.4467 0-.7761-.2925-.8208-.7133l-.0053-.0993v-2.4378c0-.4394.2975-.7634.7252-.8074l.1009-.0052z"/><path d="m68.7287 48.0947c-.255 0-.4957.1163-.6522.3152l-5.2763 6.7024c-.1056.134-.0089.3294.163.3294h.826c.255 0 .4957-.1163.6522-.3152l5.2763-6.7024c.1056-.134.0089-.3294-.163-.3294z"/><path clip-rule="evenodd" d="m61.108 66.8702h12.9967c2.3642 0 4.1304-1.7454 4.1304-4.0816s-1.7662-4.0816-4.1304-4.0816h-9.4999c-.7435 0-.8868-.6584-.4131-1.2245l6.9572-8.7799c.3222-.3849.8015-.6079 1.3068-.6079h3.1736c.6385 0 .9883.7347.5814 1.2208l-4.1712 5.3098h2.0652c4.4571 0 7.8404 3.0831 8.2244 7.347h.0364v1.6326h-.0364c-.1076 1.1952-.4509 2.2976-.9874 3.2653h9.064c1.369 0 2.4787-1.0964 2.4787-2.4489v-4.898c0-.4508.37-.8163.8263-.8163h2.4787c.4563 0 .8262.3655.8262.8163v4.898c0 .866-.1706 1.6927-.4804 2.4489h2.9472c1.3686 0 2.4786-1.0964 2.4786-2.4489v-4.898c0-.4508.37-.8163.826-.8163h2.479c.456 0 .826.3655.826.8163v4.898c0 .866-.17 1.6927-.48 2.4489h.492c1.369 0 2.479-1.0964 2.479-2.4489v-4.898c0-.4508.37-.8163.826-.8163h2.479c.456 0 .826.3655.826.8163v4.898c0 3.6067-2.959 6.5306-6.61 6.5306h-.794c-.271 0-.525-.1315-.68-.3517l-.851-1.2157c-1.156.9772-2.656 1.5674-4.2966 1.5674h-3.2732c-.2711 0-.525-.1315-.6793-.3517l-.843-1.2031c-1.1534.9697-2.6481 1.5548-4.2812 1.5548h-9.6995c-.2712 0-.525-.1315-.6794-.3517l-.8714-1.2436c-1.3743 1.0112-3.1108 1.5953-5.0507 1.5953h-32.4841c-.2711 0-.525-.1315-.6793-.3517l-.8431-1.2031c-1.1533.9696-2.6481 1.5548-4.2812 1.5548h-22.2071c-3.65054 0-6.6099-2.9239-6.6099-6.5306v-4.898c0-.4508.36992-.8163.82624-.8163h2.47876c.4563 0 .8262.3655.8262.8163v4.898c0 1.3525 1.1098 2.4489 2.4787 2.4489h22.2071c1.369 0 2.4788-1.0964 2.4788-2.4489v-4.898c0-.4508.3699-.8163.8262-.8163h2.4787c.4563 0 .8263.3655.8263.8163v4.898c0 .866-.1707 1.6927-.4805 2.4489h6.9026c-.3098-.7562-.4805-1.5829-.4805-2.4489v-2.449c0-3.6068 2.9594-6.5306 6.61-6.5306 3.6505 0 6.6099 2.9238 6.6099 6.5306v2.449c0 .866-.1706 1.6927-.4805 2.4489zm-3.6507-4.8979v2.449c0 1.3525-1.1098 2.4489-2.4787 2.4489-1.369 0-2.4788-1.0964-2.4788-2.4489v-2.449c0-1.3526 1.1098-2.449 2.4788-2.449 1.3689 0 2.4787 1.0964 2.4787 2.449z" fill-rule="evenodd"/><path d="m15.1277 91.7882c-.4729 0-.8128.3333-.8128.7969v11.1559c0 1.087-.5176 1.594-1.6257 1.594h-4.87635c-.47305 0-.81285.334-.81285.797v2.391c0 .464.3398.797.81285.797h4.87635c3.6578 0 5.6899-1.993 5.6899-5.579v-1.686l.9488 1.343c.1518.215.4016.343.6684.343h20.631c1.6308 0 3.1215-.588 4.2631-1.56l1.2463 1.56h24.5067c2.4194 0 4.5172-.915 5.9754-2.435l1.4779 2.092c.1519.215.4017.343.6685.343h20.9097c3.5921 0 6.5041-2.854 6.5041-6.3746v-4.7813c0-.4401-.364-.7969-.813-.7969h-2.439c-.449 0-.813.3568-.813.7969v4.7813c0 1.3203-1.092 2.3906-2.4391 2.3906h-21.9104c.5279-.9446.8657-2.0208.9716-3.1875h.0359v-.7969c0-4.5696-3.4675-7.9688-8.1286-7.9688h-2.0321l4.1044-5.1834c.4003-.4745.0561-1.1917-.5721-1.1917h-3.1227c-.4973 0-.9689.2176-1.286.5934l-6.8457 8.5708c-.4661.5527-.3251 1.1953.4064 1.1953h9.3478c2.3263 0 4.0643 1.7038 4.0643 3.9844s-1.738 3.9844-4.0643 3.9844h-23.9849c.3049-.7382.4728-1.5452.4728-2.3906v-4.7813c0-.4401-.364-.7969-.813-.7969h-2.439c-.449 0-.813.3568-.813.7969v4.7813c0 1.3203-1.092 2.3906-2.439 2.3906h-22.2482v-7.1719c0-.4636-.3398-.7969-.8128-.7969z"/><path d="m35.3325 106.73c-.0441-.41-.3681-.696-.8078-.696h-6.5028l-.0993.005c-.421.043-.7135.359-.7135.788v2.38l.0051.097c.044.411.368.696.8077.696h6.5028l.0994-.005c.4209-.043.7135-.359.7135-.788v-2.38z"/><path d="m17.5693 83.8194c.4395 0 .7636.2856.8077.6963l.0051.0969v2.3797c0 .4292-.2927.7453-.7135.7883l-.0993.005h-2.4394c-.4395 0-.7636-.2855-.8077-.6963l-.0051-.097v-2.3797c0-.429.2927-.7452.7135-.7882l.0993-.005z"/><path d="m100.112 83.8194c.44 0 .764.2856.808.6963l.005.0969v2.3797c0 .4292-.293.7453-.714.7883l-.099.005h-2.845c-.4396 0-.7637-.2855-.8078-.6963l-.0051-.097v-2.3797c0-.429.2927-.7452.7135-.7882l.0994-.005z"/><path d="m65.3535 81.4287c-.2509 0-.4877.1135-.6418.3077l-5.1918 6.5427c-.1038.1309-.0087.3216.1605.3216h.8128c.2509 0 .4877-.1136.6417-.3077l5.1918-6.5428c.1039-.1308.0087-.3215-.1604-.3215z"/><path d="m108.649 83.8194c0-.4401.364-.7969.813-.7969h2.439c.449 0 .813.3568.813.7969v19.1256c0 .44-.364.796-.813.796h-2.439c-.449 0-.813-.356-.813-.796z"/></g></svg>

<svg width="120" height="120" viewBox="0 0 120 120" fill="none" xmlns="http://www.w3.org/2000/svg">
<path d="M77.7524 14.9378C77.8003 15.3691 78.1744 15.7052 78.6289 15.7052H84.8224L84.9185 15.7001C85.3603 15.6533 85.7041 15.2876 85.7041 14.844V12.8462L85.699 12.7524C85.6511 12.3209 85.2769 11.9851 84.8224 11.9851L81.9819 11.9853L81.9811 10.8612L81.9759 10.7673C81.928 10.3358 81.5539 10 81.0991 10H78.6291L78.533 10.0051C78.0912 10.0518 77.7474 10.4172 77.7474 10.8612L77.7472 14.844L77.7524 14.9378Z" fill="white"/>
<path d="M110.254 34.586C110.207 34.1547 109.832 33.8186 109.378 33.8186H103.184L103.088 33.8237C102.647 33.8705 102.303 34.2362 102.303 34.6798V36.6776L102.308 36.7714C102.356 37.2029 102.73 37.5387 103.184 37.5387L106.025 37.5385L106.026 38.6626L106.031 38.7565C106.079 39.188 106.453 39.5238 106.908 39.5238H109.378L109.474 39.5188C109.916 39.472 110.259 39.1066 110.259 38.6626L110.26 34.6798L110.254 34.586Z" fill="white"/>
<path d="M97.2623 33.8399C97.7021 33.8399 98.0262 34.1259 98.0702 34.5371L98.0753 34.6342V37.0171C98.0753 37.4467 97.7827 37.7633 97.3617 37.8063L97.2623 37.8114H90.7581C90.3182 37.8114 89.9942 37.5255 89.9501 37.1141L89.945 37.0171V34.6342C89.945 34.2046 90.2377 33.8879 90.6587 33.8449L90.7581 33.8399H97.2623Z" fill="white"/>
<path d="M59.4446 12.2931C59.4005 11.8819 59.0763 11.5959 58.6367 11.5959H55.7911L55.6917 11.6009C55.2708 11.6439 54.978 11.9607 54.978 12.3902V14.7731L54.9831 14.8702C55.0272 15.2815 55.3514 15.5674 55.7911 15.5674H58.6367L58.736 15.5624C59.1569 15.5193 59.4497 15.2028 59.4497 14.7731V12.3902L59.4446 12.2931Z" fill="white"/>
<path d="M15.1303 15.571C18.502 15.571 20.7273 17.6765 20.8186 20.9224L20.8215 21.1311V25.8969C20.8215 29.1909 18.6664 31.365 15.3439 31.4541L15.1303 31.457H7.81302C7.37382 31.457 7.04926 31.1707 7.00512 30.7597L7 30.6627V28.2798C7 27.8504 7.29319 27.5336 7.71378 27.4905L7.81302 27.4855H15.1303C16.1905 27.4855 16.7102 27.0224 16.7534 26.0348L16.7564 25.8969V21.1311C16.7564 20.0955 16.2827 19.5876 15.2715 19.5454L15.1303 19.5425H7.81302C7.37382 19.5425 7.04926 19.2561 7.00512 18.8452L7 18.7482V16.3653C7 15.9361 7.29319 15.6191 7.71378 15.576L7.81302 15.571H15.1303Z" fill="white"/>
<path fill-rule="evenodd" clip-rule="evenodd" d="M31.3956 22.7671V27.5547H29.7692C28.4219 27.5547 27.3296 26.4829 27.3296 25.1609V11.5959C27.3296 11.1552 26.9656 10.7979 26.5165 10.7979H24.0769C23.6278 10.7979 23.2637 11.1552 23.2637 11.5959V25.1609C23.2637 28.6864 26.1763 31.5444 29.7692 31.5444H47.2527C48.7276 31.5444 50.0802 31.0307 51.1349 30.1756L51.8581 31.2007C52.01 31.4159 52.2598 31.5444 52.5267 31.5444H57.3863C59.2369 31.5444 60.907 30.7862 62.0916 29.5691L63.2427 31.2007C63.3946 31.4159 63.6444 31.5444 63.9113 31.5444H68.7709C70.3782 31.5444 71.8493 30.9725 72.9844 30.0247L73.8141 31.2007C73.966 31.4159 74.2159 31.5444 74.4827 31.5444H77.7042C79.3185 31.5444 80.7954 30.9675 81.9325 30.0123L82.7709 31.2007C82.9228 31.4159 83.1727 31.5444 83.4395 31.5444H84.2215C85.9164 31.5444 87.4599 30.9084 88.6177 29.8664L89.3082 31.1248C89.45 31.3832 89.725 31.5444 90.0242 31.5444H95.6373C97.2412 31.5444 98.6902 30.8935 99.7249 29.8462L100.681 31.2007C100.832 31.4159 101.082 31.5444 101.349 31.5444H106.209C109.802 31.5444 112.714 28.6864 112.714 25.1609V20.3732C112.714 19.9325 112.35 19.5753 111.901 19.5753H109.462C109.012 19.5753 108.648 19.9325 108.648 20.3732V25.1609C108.648 26.4829 107.556 27.5547 106.209 27.5547H101.094C101.247 27.049 101.33 26.5134 101.33 25.9588V20.3732C101.33 19.9325 100.966 19.5753 100.516 19.5753H98.0769C97.6278 19.5753 97.2637 19.9325 97.2637 20.3732V25.9588C97.2637 26.8402 96.5356 27.5547 95.6373 27.5547H90.7582V20.3732C90.7582 19.9325 90.3941 19.5753 89.945 19.5753H87.4743C87.0252 19.5753 86.6611 19.9325 86.6611 20.3732V25.1609C86.6611 26.4829 85.5688 27.5547 84.2215 27.5547H83.7369C84.0418 26.8155 84.2097 26.0074 84.2097 25.1609V20.3732C84.2097 19.9325 83.8456 19.5753 83.3965 19.5753H80.957C80.5079 19.5753 80.1438 19.9325 80.1438 20.3732V25.1609C80.1438 26.4829 79.0516 27.5547 77.7042 27.5547H74.8035C75.1085 26.8155 75.2764 26.0074 75.2764 25.1609V20.3732C75.2764 19.9325 74.9123 19.5753 74.4632 19.5753H72.0237C71.5745 19.5753 71.2105 19.9325 71.2105 20.3732V25.1609C71.2105 26.4829 70.1182 27.5547 68.7709 27.5547H63.4189C63.7239 26.8155 63.8918 26.0074 63.8918 25.1609V20.3732C63.8918 19.9325 63.5277 19.5753 63.0786 19.5753H60.6391C60.1899 19.5753 59.8259 19.9325 59.8259 20.3732V25.1609C59.8259 26.4829 58.7336 27.5547 57.3863 27.5547H53.0046C53.2293 26.9307 53.3516 26.2593 53.3516 25.5598C53.3516 22.2547 50.6211 19.5753 47.2527 19.5753L43.5363 19.5753C42.4114 17.6673 40.309 16.3835 37.9011 16.3835C34.3082 16.3835 31.3956 19.2415 31.3956 22.7671ZM37.9011 20.3732C36.5538 20.3732 35.4615 21.445 35.4615 22.7671V27.5547H40.3406V22.7671C40.3406 21.445 39.2484 20.3732 37.9011 20.3732ZM44.4066 27.5547V23.565H47.2527C48.3755 23.565 49.2857 24.4581 49.2857 25.5598C49.2857 26.6616 48.3755 27.5547 47.2527 27.5547H44.4066Z" fill="white"/>
<path d="M98.7052 53.1463C98.7538 53.5875 99.1339 53.9314 99.5957 53.9314H105.889L105.986 53.9262C106.435 53.8783 106.784 53.5042 106.784 53.0504V51.0065L106.779 50.9105C106.731 50.4691 106.35 50.1255 105.889 50.1255L103.003 50.1257L103.002 48.9757L102.996 48.8797C102.948 48.4383 102.568 48.0947 102.106 48.0947H99.5958L99.4983 48.0999C99.0494 48.1477 98.7001 48.5216 98.7001 48.9757L98.6999 53.0504L98.7052 53.1463Z" fill="white"/>
<path d="M28.8538 55.3387C28.809 54.918 28.4798 54.6253 28.0329 54.6253H21.4242L21.3233 54.6305C20.8955 54.6745 20.5982 54.9985 20.5982 55.4379V57.8757L20.6034 57.9751C20.6481 58.3959 20.9774 58.6883 21.4242 58.6883H28.0329L28.1339 58.6832C28.5616 58.6392 28.859 58.3153 28.859 57.8757V55.4379L28.8538 55.3387Z" fill="white"/>
<path d="M56.2172 48.0947C56.6639 48.0947 56.9933 48.3874 57.0381 48.8081L57.0433 48.9073V51.3451C57.0433 51.7847 56.7458 52.1086 56.3181 52.1526L56.2172 52.1577H53.3259C52.8792 52.1577 52.5498 51.8652 52.5051 51.4444L52.4998 51.3451V48.9073C52.4998 48.4679 52.7973 48.1439 53.225 48.0999L53.3259 48.0947H56.2172Z" fill="white"/>
<path d="M68.7287 48.0947C68.4737 48.0947 68.233 48.211 68.0765 48.4099L62.8002 55.1123C62.6946 55.2463 62.7913 55.4417 62.9632 55.4417H63.7892C64.0442 55.4417 64.2849 55.3254 64.4414 55.1265L69.7177 48.4241C69.8233 48.2901 69.7266 48.0947 69.5547 48.0947H68.7287Z" fill="white"/>
<path fill-rule="evenodd" clip-rule="evenodd" d="M61.108 66.8702H74.1047C76.4689 66.8702 78.2351 65.1248 78.2351 62.7886C78.2351 60.4524 76.4689 58.707 74.1047 58.707H64.6048C63.8613 58.707 63.718 58.0486 64.1917 57.4825L71.1489 48.7026C71.4711 48.3177 71.9504 48.0947 72.4557 48.0947H75.6293C76.2678 48.0947 76.6176 48.8294 76.2107 49.3155L72.0395 54.6253H74.1047C78.5618 54.6253 81.9451 57.7084 82.3291 61.9723H82.3655V63.6049H82.3291C82.2215 64.8001 81.8782 65.9025 81.3417 66.8702H90.4057C91.7747 66.8702 92.8844 65.7738 92.8844 64.4213V59.5233C92.8844 59.0725 93.2544 58.707 93.7107 58.707H96.1894C96.6457 58.707 97.0156 59.0725 97.0156 59.5233V64.4213C97.0156 65.2873 96.845 66.114 96.5352 66.8702H99.4824C100.851 66.8702 101.961 65.7738 101.961 64.4213V59.5233C101.961 59.0725 102.331 58.707 102.787 58.707H105.266C105.722 58.707 106.092 59.0725 106.092 59.5233V64.4213C106.092 65.2873 105.922 66.114 105.612 66.8702H106.104C107.473 66.8702 108.583 65.7738 108.583 64.4213V59.5233C108.583 59.0725 108.953 58.707 109.409 58.707H111.888C112.344 58.707 112.714 59.0725 112.714 59.5233V64.4213C112.714 68.028 109.755 70.9519 106.104 70.9519H105.31C105.039 70.9519 104.785 70.8204 104.63 70.6002L103.779 69.3845C102.623 70.3617 101.123 70.9519 99.4824 70.9519H96.2092C95.9381 70.9519 95.6842 70.8204 95.5299 70.6002L94.6869 69.3971C93.5335 70.3668 92.0388 70.9519 90.4057 70.9519H80.7062C80.435 70.9519 80.1812 70.8204 80.0268 70.6002L79.1554 69.3566C77.7811 70.3678 76.0446 70.9519 74.1047 70.9519H41.6206C41.3495 70.9519 41.0956 70.8204 40.9413 70.6002L40.0982 69.3971C38.9449 70.3667 37.4501 70.9519 35.817 70.9519H13.6099C9.95936 70.9519 7 68.028 7 64.4213V59.5233C7 59.0725 7.36992 58.707 7.82624 58.707H10.305C10.7613 58.707 11.1312 59.0725 11.1312 59.5233V64.4213C11.1312 65.7738 12.241 66.8702 13.6099 66.8702H35.817C37.186 66.8702 38.2958 65.7738 38.2958 64.4213V59.5233C38.2958 59.0725 38.6657 58.707 39.122 58.707H41.6007C42.057 58.707 42.427 59.0725 42.427 59.5233V64.4213C42.427 65.2873 42.2563 66.114 41.9465 66.8702H48.8491C48.5393 66.114 48.3686 65.2873 48.3686 64.4213V61.9723C48.3686 58.3655 51.328 55.4417 54.9786 55.4417C58.6291 55.4417 61.5885 58.3655 61.5885 61.9723V64.4213C61.5885 65.2873 61.4179 66.114 61.108 66.8702ZM57.4573 61.9723V64.4213C57.4573 65.7738 56.3475 66.8702 54.9786 66.8702C53.6096 66.8702 52.4998 65.7738 52.4998 64.4213V61.9723C52.4998 60.6197 53.6096 59.5233 54.9786 59.5233C56.3475 59.5233 57.4573 60.6197 57.4573 61.9723Z" fill="white"/>
<path d="M15.1277 91.7882C14.6548 91.7882 14.3149 92.1215 14.3149 92.5851V103.741C14.3149 104.828 13.7973 105.335 12.6892 105.335H7.81285C7.3398 105.335 7 105.669 7 106.132V108.523C7 108.987 7.3398 109.32 7.81285 109.32H12.6892C16.347 109.32 18.3791 107.327 18.3791 103.741V102.055L19.3279 103.398C19.4797 103.613 19.7295 103.741 19.9963 103.741H40.6273C42.2581 103.741 43.7488 103.153 44.8904 102.181L46.1367 103.741H70.6434C73.0628 103.741 75.1606 102.826 76.6188 101.306L78.0967 103.398C78.2486 103.613 78.4984 103.741 78.7652 103.741H99.6749C103.267 103.741 106.179 100.887 106.179 97.3664V92.5851C106.179 92.145 105.815 91.7882 105.366 91.7882H102.927C102.478 91.7882 102.114 92.145 102.114 92.5851V97.3664C102.114 98.6867 101.022 99.757 99.6749 99.757H77.7645C78.2924 98.8124 78.6302 97.7362 78.7361 96.5695H78.772V95.7726C78.772 91.203 75.3045 87.8038 70.6434 87.8038H68.6113L72.7157 82.6204C73.116 82.1459 72.7718 81.4287 72.1436 81.4287H69.0209C68.5236 81.4287 68.052 81.6463 67.7349 82.0221L60.8892 90.5929C60.4231 91.1456 60.5641 91.7882 61.2956 91.7882H70.6434C72.9697 91.7882 74.7077 93.492 74.7077 95.7726C74.7077 98.0532 72.9697 99.757 70.6434 99.757H46.6585C46.9634 99.0188 47.1313 98.2118 47.1313 97.3664V92.5851C47.1313 92.145 46.7673 91.7882 46.3183 91.7882H43.8793C43.4303 91.7882 43.0663 92.145 43.0663 92.5851V97.3664C43.0663 98.6867 41.9743 99.757 40.6273 99.757H18.3791V92.5851C18.3791 92.1215 18.0393 91.7882 17.5663 91.7882H15.1277Z" fill="white"/>
<path d="M35.3325 106.73C35.2884 106.32 34.9644 106.034 34.5247 106.034H28.0219L27.9226 106.039C27.5016 106.082 27.2091 106.398 27.2091 106.827V109.207L27.2142 109.304C27.2582 109.715 27.5822 110 28.0219 110H34.5247L34.6241 109.995C35.045 109.952 35.3376 109.636 35.3376 109.207V106.827L35.3325 106.73Z" fill="white"/>
<path d="M17.5693 83.8194C18.0088 83.8194 18.3329 84.105 18.377 84.5157L18.3821 84.6126V86.9923C18.3821 87.4215 18.0894 87.7376 17.6686 87.7806L17.5693 87.7856H15.1299C14.6904 87.7856 14.3663 87.5001 14.3222 87.0893L14.3171 86.9923V84.6126C14.3171 84.1836 14.6098 83.8674 15.0306 83.8244L15.1299 83.8194H17.5693Z" fill="white"/>
<path d="M100.112 83.8194C100.552 83.8194 100.876 84.105 100.92 84.5157L100.925 84.6126V86.9923C100.925 87.4215 100.632 87.7376 100.211 87.7806L100.112 87.7856H97.267C96.8274 87.7856 96.5033 87.5001 96.4592 87.0893L96.4541 86.9923V84.6126C96.4541 84.1836 96.7468 83.8674 97.1676 83.8244L97.267 83.8194H100.112Z" fill="white"/>
<path d="M65.3535 81.4287C65.1026 81.4287 64.8658 81.5422 64.7117 81.7364L59.5199 88.2791C59.4161 88.41 59.5112 88.6007 59.6804 88.6007H60.4932C60.7441 88.6007 60.9809 88.4871 61.1349 88.293L66.3267 81.7502C66.4306 81.6194 66.3354 81.4287 66.1663 81.4287H65.3535Z" fill="white"/>
<path d="M108.649 83.8194C108.649 83.3793 109.013 83.0225 109.462 83.0225H111.901C112.35 83.0225 112.714 83.3793 112.714 83.8194V102.945C112.714 103.385 112.35 103.741 111.901 103.741H109.462C109.013 103.741 108.649 103.385 108.649 102.945V83.8194Z" fill="white"/>
</svg>
